X: 12413
T: Far Away From Home
R: barndance
M: 4/4
K: Gmajor
GE|:D2DE G2GA|BABA B2d2|d3e dBAG|A2ED E2GE|
D2DE G2GA|BABA B2d2|dege dBAB|1 G2GE G2GE:|2 G2GE G2ga||
|:b2bg a2ag|gage d2B2|d2de dBAG|A2ED E2ga|
b2bg a2ag|gage d2B2|dege dBAB|G2GE G4:|

